packages/icons/src/assets/explosion.svg

<svg xmlns="http://www.w3.org/2000/svg" width="25" height="24"><path fill-rule="evenodd" d="M12.83 1.513h-1.5v5.244h1.5zm2.336 15.835-2.652-1.94a.74.74 0 0 0-.883 0l-2.652 1.94.352-3.266a.74.74 0 0 0-.442-.764l-3.004-1.325 3.004-1.326c.3-.135.48-.442.442-.764l-.352-3.266 2.652 1.94a.74.74 0 0 0 .883 0l2.652-1.94-.352 3.266a.734.734 0 0 0 .442.764l3.004 1.326-3.004 1.325a.75.75 0 0 0-.442.764zm-3.094-3.58c.428 0 .862.127 1.237.374A2.25 2.25 0 0 1 14.544 12a2.24 2.24 0 0 1-1.235-2.142 2.25 2.25 0 0 1-2.472 0A2.25 2.25 0 0 1 9.6 12a2.24 2.24 0 0 1 1.236 2.142 2.26 2.26 0 0 1 1.236-.374M2.624 7.407l.749-1.298 4.54 2.622-.748 1.298zm4.54 6.569-4.542 2.62.75 1.298 4.54-2.62zm4.167 3.268h1.498v5.243h-1.498zm5.666-3.272-.749 1.298 4.541 2.622.75-1.298zm-.752-5.238 4.541-2.62.75 1.297-4.542 2.62zM7.96 5.61a.75.75 0 1 0 0-1.498.75.75 0 0 0 0 1.498M4.59 12a.75.75 0 1 1-1.499 0 .75.75 0 0 1 1.498 0m3.37 7.88a.749.749 0 1 0 0-1.498.749.749 0 0 0 0 1.498m8.989-.749a.749.749 0 1 1-1.498 0 .749.749 0 0 1 1.498 0m3.37-6.382a.75.75 0 1 0 0-1.498.75.75 0 0 0 0 1.498m-3.37-7.888a.749.749 0 1 1-1.498 0 .749.749 0 0 1 1.498 0" clip-rule="evenodd"/></svg>

<svg width="100%" height="100%" viewBox="0 0 24 24" version="1.1" xmlns="http://www.w3.org/2000/svg" xmlns:xlink="http://www.w3.org/1999/xlink" xml:space="preserve" style="fill-rule:evenodd;clip-rule:evenodd;stroke-linejoin:round;stroke-miterlimit:2;"><g transform="matrix(1,0,0,1,-0.0805,1.77636e-15)"><path d="M12.83,1.513L11.33,1.513L11.33,6.757L12.83,6.757L12.83,1.513ZM15.166,17.348L12.514,15.408C12.253,15.214 11.892,15.214 11.631,15.408L8.979,17.348L9.331,14.082C9.368,13.759 9.188,13.447 8.889,13.318L5.885,11.993L8.889,10.667C9.189,10.532 9.369,10.225 9.331,9.903L8.979,6.637L11.631,8.577C11.892,8.771 12.253,8.771 12.514,8.577L15.166,6.637L14.814,9.903C14.775,10.227 14.956,10.54 15.256,10.667L18.26,11.993L15.256,13.318C14.959,13.449 14.78,13.759 14.814,14.082L15.166,17.348ZM12.072,13.768C12.5,13.768 12.934,13.895 13.309,14.142C13.256,13.247 13.743,12.403 14.544,12C13.741,11.599 13.254,10.753 13.309,9.858C12.56,10.35 11.586,10.35 10.837,9.858C10.889,10.753 10.401,11.598 9.6,12C10.403,12.4 10.891,13.246 10.836,14.142C11.203,13.9 11.632,13.77 12.072,13.768M2.624,7.407L3.373,6.109L7.913,8.731L7.165,10.029L2.624,7.407ZM7.164,13.976L2.622,16.596L3.372,17.894L7.912,15.274L7.164,13.976ZM11.331,17.244L12.829,17.244L12.829,22.487L11.331,22.487L11.331,17.244ZM16.997,13.972L16.248,15.27L20.789,17.892L21.539,16.594L16.997,13.972ZM16.245,8.734L20.786,6.114L21.536,7.411L16.994,10.031L16.245,8.734ZM7.96,5.61C7.973,5.611 7.986,5.611 7.999,5.611C8.41,5.611 8.749,5.272 8.749,4.861C8.749,4.45 8.41,4.111 7.999,4.111C7.986,4.111 7.973,4.111 7.96,4.112C7.564,4.132 7.249,4.464 7.249,4.861C7.249,5.258 7.564,5.59 7.96,5.61M4.59,12L4.59,12.027C4.59,12.439 4.252,12.777 3.841,12.777C3.429,12.777 3.09,12.439 3.09,12.027C3.09,12.018 3.091,12.009 3.091,12C3.111,11.604 3.443,11.289 3.84,11.289C4.237,11.289 4.569,11.604 4.589,12M7.959,19.88C8.37,19.88 8.708,19.542 8.708,19.131C8.708,18.72 8.37,18.382 7.959,18.382C7.548,18.382 7.21,18.72 7.21,19.131C7.21,19.542 7.548,19.88 7.959,19.88M16.948,19.131C16.948,19.542 16.61,19.88 16.199,19.88C15.788,19.88 15.45,19.542 15.45,19.131C15.45,18.72 15.788,18.382 16.199,18.382C16.61,18.382 16.948,18.72 16.948,19.131M20.318,12.749C20.331,12.75 20.344,12.75 20.357,12.75C20.768,12.75 21.107,12.411 21.107,12C21.107,11.589 20.768,11.25 20.357,11.25C20.344,11.25 20.331,11.25 20.318,11.251C19.922,11.271 19.607,11.603 19.607,12C19.607,12.397 19.922,12.729 20.318,12.749M16.948,4.861C16.948,5.272 16.61,5.61 16.199,5.61C15.788,5.61 15.45,5.272 15.45,4.861C15.45,4.45 15.788,4.112 16.199,4.112C16.61,4.112 16.948,4.45 16.948,4.861"/></g></svg>
